X:311
T: BESCHATTET VON DER PAPPEL WEIDE
N: B0368
O: Europa, Mitteleuropa, Deutschland
R: Liebes - Lied, Liebes - Lust, Anmache
M: 6/8
L: 1/8
K: F
C | A2GF2c | c2BAF
A | G2GGcA | G3z2
C | A2GF2c | c2BAF
A | G2GGcA | G3z2
C | A2Bc2c | A2Bc2
c | f2cBAG | F2FF2

